imagens/SuporteDispositivos.svg

<svg xmlns="http://www.w3.org/2000/svg" xmlns:xlink="http://www.w3.org/1999/xlink" width="500" zoomAndPan="magnify" viewBox="0 0 375 374.999991" height="500" preserveAspectRatio="xMidYMid meet" version="1.0"><defs><clipPath id="7a2c45f3b2"><path d="M 187.5 0 C 83.945312 0 0 83.945312 0 187.5 C 0 291.054688 83.945312 375 187.5 375 C 291.054688 375 375 291.054688 375 187.5 C 375 83.945312 291.054688 0 187.5 0 Z M 187.5 0 " clip-rule="nonzero"/></clipPath><clipPath id="fbfc9d8898"><path d="M 50.265625 183 L 94 183 L 94 261.957031 L 50.265625 261.957031 Z M 50.265625 183 " clip-rule="nonzero"/></clipPath><clipPath id="318aef21a9"><path d="M 66 112.707031 L 248 112.707031 L 248 176 L 66 176 Z M 66 112.707031 " clip-rule="nonzero"/></clipPath><clipPath id="45ed3e81c5"><path d="M 281 181 L 324.765625 181 L 324.765625 261 L 281 261 Z M 281 181 " clip-rule="nonzero"/></clipPath></defs><g clip-path="url(#7a2c45f3b2)"><rect x="-37.5" width="450" fill="#e28100" y="-37.499999" height="449.999989" fill-opacity="1"/></g><g clip-path="url(#fbfc9d8898)"><path fill="#ffffff" d="M 55.148438 198.320312 L 55.148438 247.679688 C 55.148438 248.484375 55.800781 249.132812 56.601562 249.132812 L 87.222656 249.132812 C 88.023438 249.132812 88.671875 248.484375 88.671875 247.679688 L 88.671875 198.320312 C 88.671875 197.519531 88.023438 196.867188 87.222656 196.867188 L 56.601562 196.867188 C 55.800781 196.867188 55.148438 197.519531 55.148438 198.320312 Z M 93.042969 222.996094 C 93.042969 233.273438 92.964844 243.554688 93.074219 253.835938 C 93.132812 259.496094 90.808594 262.253906 84.886719 262.113281 C 76.210938 261.898438 67.527344 261.9375 58.847656 262.097656 C 53.003906 262.203125 50.535156 259.386719 50.546875 253.777344 C 50.574219 232.988281 50.574219 212.199219 50.550781 191.410156 C 50.542969 186.023438 53.132812 183.457031 58.53125 183.496094 C 67.441406 183.5625 76.351562 183.570312 85.261719 183.496094 C 90.730469 183.449219 93.125 186.050781 93.070312 191.46875 C 92.960938 201.976562 93.039062 212.488281 93.042969 222.996094 " fill-opacity="1" fill-rule="nonzero"/></g><path fill="#ffffff" d="M 208.917969 213.8125 L 208.917969 228.9375 C 208.917969 230.367188 207.757812 231.53125 206.324219 231.53125 L 161.433594 231.53125 C 160.8125 231.53125 160.316406 232.027344 160.316406 232.644531 L 160.316406 238.613281 C 160.316406 239.226562 160.808594 239.722656 161.421875 239.722656 C 165.074219 239.738281 168.78125 239.777344 172.492188 239.832031 C 173.695312 239.851562 175.429688 241.066406 175.96875 242.183594 C 178.109375 246.601562 179.957031 251.164062 181.9375 255.824219 C 182.207031 256.46875 181.738281 257.179688 181.042969 257.179688 L 132.382812 257.179688 C 131.65625 257.179688 131.1875 256.394531 131.53125 255.75 C 134.121094 250.945312 136.734375 246.097656 139.871094 240.253906 C 140.046875 239.933594 140.386719 239.722656 140.75 239.722656 C 144.785156 239.722656 149.125 239.710938 153.628906 239.710938 C 154.242188 239.710938 154.746094 239.214844 154.746094 238.597656 L 154.746094 232.644531 C 154.746094 232.027344 154.246094 231.53125 153.628906 231.53125 L 103.855469 231.53125 C 102.425781 231.53125 101.261719 230.367188 101.261719 228.9375 L 101.261719 213.8125 C 101.261719 212.382812 102.425781 211.21875 103.855469 211.21875 L 206.324219 211.21875 C 207.757812 211.21875 208.917969 212.382812 208.917969 213.8125 " fill-opacity="1" fill-rule="nonzero"/><g clip-path="url(#318aef21a9)"><path fill="#ffffff" d="M 66.742188 175.578125 L 66.960938 175.574219 C 70.035156 175.574219 72.976562 175.542969 76.226562 175.539062 C 76.867188 175.539062 77.390625 175.019531 77.390625 174.378906 C 77.390625 167.953125 77.390625 136.640625 77.390625 126.917969 C 77.390625 125.320312 78.683594 124.03125 80.28125 124.03125 L 233.960938 124.03125 C 235.558594 124.03125 236.855469 125.324219 236.855469 126.921875 L 236.855469 139 C 236.855469 139.21875 237.035156 139.402344 237.257812 139.402344 L 246.953125 139.402344 C 247.222656 139.402344 247.441406 139.179688 247.441406 138.910156 C 247.441406 132.945312 247.449219 127.421875 247.4375 121.902344 C 247.425781 115.6875 244.21875 112.71875 238.082031 112.71875 C 184 112.71875 129.914062 112.6875 75.828125 112.757812 C 68.921875 112.769531 66.699219 115.3125 66.675781 122.503906 C 66.625 138.480469 66.640625 154.453125 66.683594 170.429688 C 66.6875 171.765625 66.65625 173.121094 66.722656 174.441406 L 66.742188 175.578125 " fill-opacity="1" fill-rule="nonzero"/></g><g clip-path="url(#45ed3e81c5)"><path fill="#ffffff" d="M 286.472656 196.238281 L 286.472656 245.597656 C 286.472656 246.402344 287.121094 247.050781 287.921875 247.050781 L 318.542969 247.050781 C 319.347656 247.050781 319.996094 246.402344 319.996094 245.597656 L 319.996094 196.238281 C 319.996094 195.4375 319.347656 194.785156 318.542969 194.785156 L 287.921875 194.785156 C 287.121094 194.785156 286.472656 195.4375 286.472656 196.238281 Z M 324.363281 220.910156 C 324.363281 231.191406 324.289062 241.472656 324.394531 251.753906 C 324.453125 257.414062 322.132812 260.171875 316.210938 260.027344 C 307.535156 259.816406 298.851562 259.855469 290.171875 260.015625 C 284.328125 260.121094 281.859375 257.304688 281.867188 251.695312 C 281.898438 230.90625 281.898438 210.117188 281.875 189.328125 C 281.867188 183.941406 284.457031 181.375 289.855469 181.414062 C 298.765625 181.480469 307.675781 181.488281 316.582031 181.410156 C 322.050781 181.363281 324.449219 183.96875 324.394531 189.386719 C 324.285156 199.894531 324.363281 210.40625 324.363281 220.910156 " fill-opacity="1" fill-rule="nonzero"/></g><path fill="#ffffff" d="M 270.292969 245.050781 L 270.300781 245.050781 C 270.300781 243.46875 270.304688 241.882812 270.304688 240.285156 L 270.292969 245.050781 " fill-opacity="1" fill-rule="nonzero"/><path fill="#ffffff" d="M 299.4375 169.5 C 299.4375 169.714844 299.265625 169.882812 299.058594 169.882812 C 297.355469 169.878906 295.625 169.871094 293.878906 169.867188 C 293.667969 169.859375 293.496094 169.691406 293.496094 169.484375 L 293.496094 159.128906 C 293.496094 157 291.769531 155.273438 289.640625 155.273438 L 226.914062 155.273438 C 224.785156 155.273438 223.058594 157 223.058594 159.136719 L 223.058594 235.484375 C 223.058594 237.613281 224.789062 239.339844 226.914062 239.339844 L 269.367188 239.339844 C 269.882812 239.339844 270.292969 239.753906 270.304688 240.261719 L 270.304688 240.285156 L 270.292969 245.050781 L 270.300781 245.050781 L 270.277344 256.820312 C 270.269531 257.335938 269.855469 257.753906 269.339844 257.753906 C 255.796875 257.777344 242.253906 257.765625 228.695312 257.714844 C 220.335938 257.679688 217.128906 254.492188 217.113281 246.074219 C 217.042969 216.886719 217.042969 187.691406 217.113281 158.507812 C 217.136719 150.359375 220.167969 147.1875 228.21875 147.132812 C 248.285156 147 268.355469 147.011719 288.421875 147.121094 C 296.527344 147.167969 299.394531 150.238281 299.417969 158.371094 C 299.429688 162.082031 299.4375 165.796875 299.4375 169.5 " fill-opacity="1" fill-rule="nonzero"/></svg>

<svg xmlns="http://www.w3.org/2000/svg" width="500" height="500" version="1.0" viewBox="0 0 375 375"><defs><clipPath id="a"><path d="M187.5 0C83.945 0 0 83.945 0 187.5S83.945 375 187.5 375 375 291.055 375 187.5 291.055 0 187.5 0m0 0"/></clipPath><clipPath id="b"><path d="M50.266 183H94v78.957H50.266Zm0 0"/></clipPath><clipPath id="c"><path d="M66 112.707h182V176H66Zm0 0"/></clipPath><clipPath id="d"><path d="M281 181h43.766v80H281Zm0 0"/></clipPath></defs><g clip-path="url(#a)"><path fill="#e28100" d="M-37.5-37.5h450v450h-450z"/></g><g clip-path="url(#b)"><path fill="#fff" d="M55.148 198.32v49.36c0 .804.653 1.453 1.454 1.453h30.62c.801 0 1.45-.649 1.45-1.453v-49.36c0-.8-.649-1.453-1.45-1.453h-30.62c-.801 0-1.454.653-1.454 1.453m37.895 24.676c0 10.277-.078 20.559.031 30.84.059 5.66-2.265 8.418-8.187 8.277-8.676-.215-17.36-.175-26.04-.015-5.843.105-8.312-2.711-8.3-8.32.027-20.79.027-41.579.004-62.368-.008-5.387 2.582-7.953 7.98-7.914 8.91.066 17.82.074 26.73 0 5.47-.047 7.864 2.555 7.81 7.973-.11 10.508-.032 21.02-.028 31.527"/></g><path fill="#fff" d="M208.918 213.813v15.125c0 1.43-1.16 2.593-2.594 2.593h-44.89c-.621 0-1.118.496-1.118 1.114v5.968c0 .614.493 1.11 1.106 1.11 3.652.015 7.36.054 11.07.109 1.203.02 2.938 1.234 3.477 2.352 2.14 4.418 3.988 8.98 5.969 13.64a.975.975 0 0 1-.895 1.356h-48.66a.973.973 0 0 1-.852-1.43c2.59-4.805 5.203-9.652 8.34-15.496.176-.32.516-.531.879-.531 4.035 0 8.375-.012 12.879-.012.613 0 1.117-.496 1.117-1.113v-5.953c0-.618-.5-1.114-1.117-1.114h-49.774a2.597 2.597 0 0 1-2.593-2.594v-15.125a2.597 2.597 0 0 1 2.593-2.593h102.47a2.595 2.595 0 0 1 2.593 2.594"/><g clip-path="url(#c)"><path fill="#fff" d="m66.742 175.578.219-.004c3.074 0 6.016-.031 9.266-.035.64 0 1.164-.52 1.164-1.16v-47.461a2.886 2.886 0 0 1 2.89-2.887h153.68a2.892 2.892 0 0 1 2.894 2.89V139c0 .219.18.402.403.402h9.695c.27 0 .488-.222.488-.492 0-5.965.008-11.488-.004-17.008-.011-6.215-3.218-9.183-9.355-9.183-54.082 0-108.168-.031-162.254.039-6.906.012-9.129 2.555-9.152 9.746-.051 15.976-.035 31.95.008 47.926.004 1.336-.028 2.691.039 4.011z"/></g><g clip-path="url(#d)"><path fill="#fff" d="M286.473 196.238v49.36a1.45 1.45 0 0 0 1.449 1.453h30.621a1.45 1.45 0 0 0 1.453-1.453v-49.36c0-.8-.648-1.453-1.453-1.453h-30.621c-.8 0-1.45.653-1.45 1.453m37.89 24.672c0 10.281-.074 20.563.032 30.844.058 5.66-2.262 8.418-8.184 8.273-8.676-.21-17.36-.172-26.04-.011-5.843.105-8.312-2.711-8.304-8.32.031-20.79.031-41.579.008-62.368-.008-5.387 2.582-7.953 7.98-7.914 8.91.066 17.82.074 26.727-.004 5.469-.047 7.867 2.559 7.813 7.977-.11 10.508-.032 21.02-.032 31.523"/></g><path fill="#fff" d="M270.293 245.05h.008c0-1.581.004-3.167.004-4.765z"/><path fill="#fff" d="M299.438 169.5a.38.38 0 0 1-.38.383c-1.703-.004-3.433-.012-5.18-.016a.391.391 0 0 1-.382-.383V159.13a3.856 3.856 0 0 0-3.855-3.856h-62.727a3.858 3.858 0 0 0-3.855 3.864v76.347a3.858 3.858 0 0 0 3.855 3.856h42.453a.94.94 0 0 1 .938.922v.023l-.012 4.766h.008l-.024 11.77a.942.942 0 0 1-.937.933 7420.91 7420.91 0 0 1-40.645-.04c-8.36-.034-11.566-3.222-11.582-11.64-.07-29.187-.07-58.383 0-87.566.024-8.149 3.055-11.32 11.106-11.375a4988.5 4988.5 0 0 1 60.203-.012c8.105.047 10.973 3.117 10.996 11.25.012 3.711.02 7.426.02 11.129"/></svg>
